src/assets/icons/logo.svg

<svg viewBox="0 0 178 44" fill="none" xmlns="http://www.w3.org/2000/svg">
<g>
<path d="M21.6369 23.647C21.4823 23.647 21.3278 23.647 21.1732 23.4925C20.8641 23.1834 20.8641 22.8743 21.1732 22.5652L25.037 18.5469C25.3461 18.2378 25.6552 18.2378 25.8097 18.5469C25.9643 18.856 26.1188 19.1651 25.8097 19.4742L21.946 23.4925C21.946 23.647 21.7914 23.647 21.6369 23.647Z" fill="currentColor"/>
<path d="M27.8185 21.6379C27.664 21.6379 27.5094 21.6379 27.3549 21.4833C27.0458 21.1742 27.0458 20.8651 27.3549 20.556L29.2095 18.7014C29.5186 18.3923 29.8277 18.3923 29.9822 18.7014C30.2913 19.0105 30.2913 19.3196 29.9822 19.6287L28.1276 21.4833C28.1276 21.6379 27.9731 21.6379 27.8185 21.6379Z" fill="currentColor"/>
<path d="M21.7912 28.129C21.6366 28.129 21.4821 28.129 21.3275 27.9744C21.0184 27.6653 21.0184 27.3562 21.3275 27.0471L25.8095 22.4106C26.1186 22.1015 26.4277 22.1015 26.5822 22.4106C26.8913 22.7197 26.8913 23.0288 26.5822 23.3379L22.1003 27.9744C22.1003 27.9744 21.9457 28.129 21.7912 28.129Z" fill="currentColor"/>
<path d="M26.8912 38.9475C19.4728 38.9475 13.4453 32.6109 13.4453 24.8834C13.4453 17.1559 19.4728 10.8194 26.8912 10.8194C34.3096 10.8194 40.337 17.1559 40.337 24.8834C40.4916 32.6109 34.4641 38.9475 26.8912 38.9475ZM26.8912 11.9012C20.091 11.9012 14.5272 17.6196 14.5272 24.7289C14.5272 31.8382 20.091 37.5565 26.8912 37.5565C33.6914 37.5565 39.2552 31.8382 39.2552 24.7289C39.2552 17.7741 33.6914 11.9012 26.8912 11.9012Z" fill="currentColor"/>
<path d="M51.4651 5.56468H38.6375V2.47368C38.6375 1.08273 37.5556 -0.153671 36.1647 -0.153671H17.6187C16.2278 -0.153671 15.1459 0.928179 15.1459 2.47368V5.56468H2.31825C0.9273 5.56468 0 6.64653 0 8.03748V41.4203C0 42.8112 1.08185 43.8931 2.31825 43.8931H51.4651C52.8561 43.8931 53.7834 42.8112 53.7834 41.4203V8.19203C53.938 6.80108 52.8561 5.56468 51.4651 5.56468ZM16.3823 2.62823C16.3823 1.85548 17.0005 1.23728 17.6187 1.23728H36.1647C36.9375 1.23728 37.4011 1.85548 37.4011 2.62823V5.71923H16.3823V2.62823ZM52.7015 41.5748C52.7015 42.193 52.2379 42.8112 51.4651 42.8112H2.31825C1.70005 42.8112 1.08185 42.193 1.08185 41.5748V8.19203C1.2364 7.41928 1.70005 6.95563 2.31825 6.95563H51.4651C52.0834 6.95563 52.7015 7.57383 52.7015 8.19203V41.5748Z" fill="currentColor"/>
<path d="M46.6745 16.0741C45.129 16.0741 43.8926 14.6831 43.8926 13.1376C43.8926 11.5921 45.129 10.2012 46.6745 10.2012C48.22 10.2012 49.4564 11.5921 49.4564 13.1376C49.4564 14.6831 48.22 16.0741 46.6745 16.0741ZM46.6745 11.4376C45.7472 11.4376 44.9744 12.2103 44.9744 13.1376C44.9744 14.0649 45.7472 14.8377 46.6745 14.8377C47.6018 14.8377 48.3745 14.0649 48.3745 13.1376C48.3745 12.2103 47.6018 11.4376 46.6745 11.4376Z" fill="currentColor"/>
<path d="M26.8926 34.7746C21.6379 34.7746 17.3105 30.2927 17.3105 24.7289C17.3105 19.1651 21.6379 14.6831 26.8926 14.6831C32.1473 14.6831 36.4747 19.1651 36.4747 24.7289C36.4747 30.2927 32.3019 34.7746 26.8926 34.7746ZM26.8926 16.0741C22.2561 16.0741 18.5469 19.9378 18.5469 24.8834C18.5469 29.829 22.2561 33.6928 26.8926 33.6928C31.5291 33.6928 35.2383 29.829 35.2383 24.8834C35.2383 19.9378 31.5291 16.0741 26.8926 16.0741Z" fill="currentColor"/>
<path d="M8.65509 16.0741H6.18229C4.63679 16.0741 3.40039 14.6831 3.40039 13.1376C3.40039 11.5921 4.63679 10.2012 6.18229 10.2012H8.50054C10.046 10.2012 11.2824 11.5921 11.2824 13.1376C11.2824 14.6831 10.2006 16.0741 8.65509 16.0741ZM6.18229 11.4376C5.40954 11.4376 4.63679 12.2103 4.63679 13.1376C4.63679 14.0649 5.40954 14.8377 6.18229 14.8377H8.50054C9.42784 14.8377 10.2006 14.0649 10.2006 13.1376C10.2006 12.2103 9.42784 11.4376 8.65509 11.4376H6.18229Z" fill="currentColor"/>
<path d="M60.4451 34.705C61.2701 34.76 62.3151 34.595 63.2501 34.1C64.6251 33.385 65.0651 32.23 64.5151 31.185C64.0201 30.195 63.1401 29.92 61.4351 30.14C59.4001 30.415 57.8601 30.085 57.0901 28.6C56.2101 26.95 56.9801 25.025 59.0151 23.98C60.1151 23.43 60.9951 23.265 61.6001 23.265L61.8201 24.585C61.3801 24.585 60.5001 24.64 59.5651 25.135C58.1351 25.905 58.0251 27.005 58.4101 27.72C58.9051 28.71 59.8401 28.875 61.5451 28.655C63.6901 28.435 65.0101 28.82 65.8351 30.36C66.6601 32.01 66.2201 33.99 63.7451 35.31C62.7551 35.86 61.4901 36.135 60.7201 36.025L60.4451 34.705Z" fill="currentColor"/>
<path d="M66.7696 21.89C66.9896 22.385 66.7696 22.935 66.1646 23.1C65.6696 23.265 65.1196 23.045 64.9546 22.55C64.7896 22.055 65.0096 21.505 65.5046 21.285C66.1096 21.12 66.6046 21.395 66.7696 21.89ZM68.9696 32.725L65.9996 24.75L67.4296 24.2L70.3996 32.175L68.9696 32.725Z" fill="currentColor"/>
<path d="M71.0054 25.245C70.7854 24.365 70.6204 23.705 70.4004 23.045L71.7204 22.715L72.1054 24.035H72.1604C72.4354 23.155 73.0404 22.22 74.3604 21.89C75.5154 21.615 76.5054 22.11 77.1104 22.99H77.1654C77.3304 22.44 77.5504 22 77.8254 21.67C78.2104 21.175 78.7054 20.845 79.5304 20.625C80.6304 20.35 82.4454 20.68 83.1054 23.54L84.3154 28.435L82.8304 28.82L81.6754 24.145C81.2904 22.55 80.4654 21.725 79.2554 22.055C78.3754 22.275 77.8804 23.045 77.8254 23.87C77.8254 24.09 77.8254 24.365 77.8804 24.64L79.1454 29.755L77.6604 30.14L76.4504 25.19C76.1204 23.87 75.2954 23.045 74.1404 23.32C73.2054 23.54 72.7104 24.475 72.6554 25.3C72.6004 25.52 72.6554 25.795 72.7104 26.07L73.9204 31.075L72.4354 31.46L71.0054 25.245Z" fill="currentColor"/>
<path d="M85.6903 22.44C85.5253 21.34 85.3603 20.515 85.1953 19.69L86.5703 19.47L86.8453 20.9H86.9003C87.3953 19.8 88.2753 19.03 89.6503 18.81C91.6853 18.535 93.4453 20.02 93.8303 22.55C94.2703 25.575 92.6203 27.335 90.6403 27.61C89.5403 27.775 88.4953 27.445 87.8353 26.675H87.7803L88.4403 31.24L86.9003 31.46L85.6903 22.44ZM87.5053 24.475C87.5603 24.695 87.6153 24.915 87.6703 25.08C88.1103 26.125 89.1553 26.675 90.2553 26.565C91.8503 26.345 92.6203 24.86 92.3453 22.935C92.1253 21.23 91.0253 19.91 89.3753 20.185C88.3303 20.35 87.4503 21.23 87.3403 22.44C87.3403 22.66 87.2853 22.88 87.3403 23.1L87.5053 24.475Z" fill="currentColor"/>
<path d="M95.041 14.355L96.581 14.19L97.846 26.62L96.306 26.785L95.041 14.355Z" fill="currentColor"/>
<path d="M100.926 22.385C101.091 24.475 102.466 25.245 104.061 25.135C105.161 25.08 105.821 24.805 106.371 24.53L106.701 25.63C106.151 25.905 105.271 26.235 103.896 26.345C101.256 26.51 99.6061 24.915 99.4411 22.33C99.2761 19.745 100.651 17.655 103.126 17.49C105.876 17.325 106.811 19.69 106.921 21.285C106.921 21.615 106.921 21.835 106.921 22L100.926 22.385ZM105.381 20.955C105.326 19.965 104.831 18.48 103.071 18.59C101.531 18.7 100.926 20.185 100.871 21.285L105.381 20.955Z" fill="currentColor"/>
<path d="M121 25.41C120.45 25.685 119.295 25.96 117.865 25.96C114.51 25.96 112.035 23.815 112.035 19.91C112.035 16.17 114.565 13.695 118.25 13.695C119.735 13.695 120.67 14.025 121.055 14.245L120.67 15.51C120.065 15.235 119.24 15.015 118.305 15.015C115.5 15.015 113.685 16.775 113.63 19.91C113.63 22.825 115.28 24.695 118.14 24.695C119.075 24.695 120.01 24.53 120.615 24.2L121 25.41Z" fill="currentColor"/>
<path d="M127.325 26.07L127.27 24.97H127.215C126.72 25.63 125.785 26.18 124.575 26.125C122.87 26.07 122.045 24.805 122.1 23.54C122.21 21.505 124.08 20.46 127.38 20.625V20.46C127.435 19.745 127.27 18.48 125.51 18.425C124.74 18.37 123.86 18.59 123.255 18.975L122.925 17.93C123.64 17.49 124.685 17.27 125.73 17.325C128.315 17.435 128.865 19.25 128.81 20.955L128.645 24.145C128.59 24.86 128.59 25.63 128.7 26.18L127.325 26.07ZM127.325 21.725C125.62 21.615 123.695 21.835 123.64 23.485C123.585 24.475 124.245 24.97 125.015 25.025C126.115 25.08 126.885 24.42 127.16 23.705C127.215 23.54 127.27 23.375 127.27 23.21L127.325 21.725Z" fill="currentColor"/>
<path d="M131.56 20.02C131.67 19.14 131.725 18.425 131.725 17.71L133.1 17.875L133.045 19.25H133.1C133.65 18.48 134.53 17.82 135.905 17.985C137.06 18.095 137.885 18.92 138.105 19.965H138.16C138.49 19.525 138.82 19.195 139.205 18.975C139.755 18.645 140.36 18.48 141.13 18.59C142.23 18.7 143.825 19.635 143.495 22.55L142.945 27.555L141.46 27.39L142.01 22.605C142.175 20.955 141.68 19.91 140.47 19.8C139.59 19.69 138.82 20.295 138.49 21.01C138.38 21.23 138.325 21.505 138.27 21.78L137.72 27.005L136.235 26.84L136.785 21.78C136.95 20.46 136.455 19.415 135.245 19.25C134.255 19.14 133.485 19.855 133.155 20.57C133.045 20.79 132.99 21.065 132.935 21.285L132.385 26.4L130.9 26.235L131.56 20.02Z" fill="currentColor"/>
<path d="M146.851 24.2C146.521 26.29 147.676 27.335 149.161 27.665C150.261 27.885 150.921 27.83 151.581 27.665L151.636 28.82C151.031 28.985 150.096 29.04 148.776 28.82C146.191 28.325 144.981 26.345 145.476 23.815C145.971 21.285 147.841 19.58 150.261 20.02C153.011 20.515 153.286 23.1 152.956 24.64C152.901 24.97 152.791 25.19 152.791 25.355L146.851 24.2ZM151.471 23.925C151.691 22.935 151.526 21.395 149.821 21.065C148.281 20.79 147.346 22.055 147.016 23.1L151.471 23.925Z" fill="currentColor"/>
<path d="M155.155 23.98C155.43 22.99 155.595 22.165 155.76 21.395L157.08 21.725L156.695 23.375H156.75C157.41 22.385 158.51 21.89 159.5 22.165C159.665 22.22 159.775 22.275 159.94 22.33L159.555 23.76C159.39 23.705 159.28 23.65 159.06 23.595C158.015 23.32 157.025 23.925 156.53 25.025C156.42 25.245 156.365 25.465 156.31 25.685L155.21 30.085L153.725 29.7L155.155 23.98Z" fill="currentColor"/>
<path d="M163.406 32.56L163.626 31.515H163.571C162.911 32.01 161.866 32.285 160.711 31.845C159.061 31.295 158.621 29.865 159.061 28.71C159.721 26.785 161.811 26.29 164.946 27.39L165.001 27.225C165.221 26.565 165.441 25.3 163.791 24.75C163.021 24.475 162.196 24.475 161.481 24.64V23.54C162.306 23.32 163.351 23.375 164.396 23.76C166.871 24.585 166.871 26.51 166.321 28.105L165.276 31.13C165.056 31.845 164.836 32.505 164.726 33.11L163.406 32.56ZM164.616 28.38C163.021 27.775 161.096 27.445 160.601 29.04C160.271 29.975 160.766 30.635 161.481 30.91C162.526 31.295 163.406 30.855 163.901 30.25C164.011 30.14 164.066 29.975 164.121 29.81L164.616 28.38Z" fill="currentColor"/>
<path d="M167.09 32.285C167.365 32.78 167.915 33.44 168.63 33.77C169.62 34.265 170.335 34.045 170.665 33.385C170.995 32.725 170.775 32.175 169.95 31.24C168.85 30.03 168.575 28.985 169.07 28.05C169.675 26.84 171.215 26.345 172.81 27.17C173.58 27.555 174.13 28.105 174.405 28.6L173.525 29.425C173.305 29.095 172.92 28.545 172.205 28.215C171.38 27.775 170.72 28.05 170.39 28.6C170.06 29.205 170.39 29.755 171.16 30.635C172.205 31.79 172.535 32.835 171.985 33.935C171.325 35.255 169.785 35.695 167.97 34.76C167.145 34.32 166.485 33.715 166.1 33.165L167.09 32.285Z" fill="currentColor"/>
</g>
<defs>
</defs>
</svg>

<svg xmlns="http://www.w3.org/2000/svg" width="178" height="44" fill="none" viewBox="0 0 178 44"><g fill="currentColor"><path d="M21.637 23.647c-.155 0-.31 0-.464-.154-.309-.31-.309-.619 0-.928l3.864-4.018c.31-.31.618-.31.773 0 .154.309.309.618 0 .927l-3.864 4.018c0 .155-.155.155-.31.155ZM27.819 21.638c-.155 0-.31 0-.464-.155-.31-.309-.31-.618 0-.927l1.854-1.855c.31-.309.619-.309.773 0 .31.31.31.619 0 .928l-1.854 1.854c0 .155-.155.155-.31.155ZM21.791 28.129c-.154 0-.309 0-.463-.155-.31-.309-.31-.618 0-.927l4.482-4.636c.309-.31.618-.31.772 0 .31.309.31.618 0 .927L22.1 27.974s-.154.155-.309.155Z"/><path d="M26.891 38.947c-7.418 0-13.446-6.336-13.446-14.064 0-7.727 6.028-14.064 13.446-14.064 7.419 0 13.446 6.337 13.446 14.064.155 7.728-5.873 14.064-13.446 14.064Zm0-27.046c-6.8 0-12.364 5.719-12.364 12.828 0 7.11 5.564 12.828 12.364 12.828 6.8 0 12.364-5.719 12.364-12.828 0-6.955-5.564-12.828-12.364-12.828Z"/><path d="M51.465 5.565H38.637V2.474c0-1.391-1.081-2.628-2.472-2.628H17.619c-1.391 0-2.473 1.082-2.473 2.628v3.09H2.318C.928 5.565 0 6.648 0 8.038V41.42c0 1.391 1.082 2.473 2.318 2.473h49.147c1.391 0 2.318-1.082 2.318-2.473V8.192c.155-1.39-.927-2.627-2.318-2.627ZM16.382 2.628c0-.773.618-1.39 1.237-1.39h18.546c.773 0 1.236.617 1.236 1.39V5.72H16.382V2.63Zm36.32 38.947c0 .618-.464 1.236-1.237 1.236H2.318c-.618 0-1.236-.618-1.236-1.236V8.192c.154-.773.618-1.236 1.236-1.236h49.147c.618 0 1.236.618 1.236 1.236v33.383Z"/><path d="M46.675 16.074c-1.546 0-2.782-1.39-2.782-2.936s1.236-2.937 2.782-2.937c1.545 0 2.781 1.391 2.781 2.937 0 1.545-1.236 2.936-2.782 2.936Zm0-4.636c-.928 0-1.7.772-1.7 1.7 0 .927.772 1.7 1.7 1.7.927 0 1.7-.773 1.7-1.7 0-.928-.773-1.7-1.7-1.7ZM26.893 34.775c-5.255 0-9.582-4.482-9.582-10.046 0-5.564 4.327-10.046 9.582-10.046 5.254 0 9.582 4.482 9.582 10.046 0 5.564-4.173 10.046-9.582 10.046Zm0-18.7c-4.637 0-8.346 3.863-8.346 8.808 0 4.946 3.71 8.81 8.346 8.81s8.345-3.864 8.345-8.81c0-4.945-3.709-8.809-8.345-8.809ZM8.655 16.074H6.182c-1.545 0-2.782-1.39-2.782-2.936S4.637 10.2 6.182 10.2h2.319c1.545 0 2.781 1.391 2.781 2.937 0 1.545-1.081 2.936-2.627 2.936Zm-2.473-4.636c-.772 0-1.545.772-1.545 1.7 0 .927.773 1.7 1.545 1.7h2.319c.927 0 1.7-.773 1.7-1.7 0-.928-.773-1.7-1.546-1.7H6.182ZM60.445 34.705c.825.055 1.87-.11 2.805-.605 1.375-.715 1.815-1.87 1.265-2.915-.495-.99-1.375-1.265-3.08-1.045-2.035.275-3.575-.055-4.345-1.54-.88-1.65-.11-3.575 1.925-4.62 1.1-.55 1.98-.715 2.585-.715l.22 1.32c-.44 0-1.32.055-2.255.55-1.43.77-1.54 1.87-1.155 2.585.495.99 1.43 1.155 3.135.935 2.145-.22 3.465.165 4.29 1.705.825 1.65.385 3.63-2.09 4.95-.99.55-2.255.825-3.025.715l-.275-1.32ZM66.77 21.89c.22.495 0 1.045-.605 1.21-.495.165-1.045-.055-1.21-.55a1.021 1.021 0 0 1 .55-1.265c.605-.165 1.1.11 1.265.605Zm2.2 10.835L66 24.75l1.43-.55 2.97 7.975-1.43.55ZM71.005 25.245c-.22-.88-.385-1.54-.605-2.2l1.32-.33.385 1.32h.055c.275-.88.88-1.815 2.2-2.145 1.155-.275 2.145.22 2.75 1.1h.055c.165-.55.385-.99.66-1.32.385-.495.88-.825 1.705-1.045 1.1-.275 2.915.055 3.575 2.915l1.21 4.895-1.485.385-1.155-4.675c-.385-1.595-1.21-2.42-2.42-2.09-.88.22-1.375.99-1.43 1.815 0 .22 0 .495.055.77l1.265 5.115-1.485.385-1.21-4.95c-.33-1.32-1.155-2.145-2.31-1.87-.935.22-1.43 1.155-1.485 1.98-.055.22 0 .495.055.77l1.21 5.005-1.485.385-1.43-6.215ZM85.69 22.44c-.165-1.1-.33-1.925-.495-2.75l1.375-.22.275 1.43h.055c.495-1.1 1.375-1.87 2.75-2.09 2.035-.275 3.795 1.21 4.18 3.74.44 3.025-1.21 4.785-3.19 5.06-1.1.165-2.145-.165-2.805-.935h-.055l.66 4.565-1.54.22-1.21-9.02Zm1.815 2.035c.055.22.11.44.165.605.44 1.045 1.485 1.595 2.585 1.485 1.595-.22 2.365-1.705 2.09-3.63-.22-1.705-1.32-3.025-2.97-2.75-1.045.165-1.925 1.045-2.035 2.255 0 .22-.055.44 0 .66l.165 1.375ZM95.041 14.355l1.54-.165 1.265 12.43-1.54.165-1.265-12.43ZM100.926 22.385c.165 2.09 1.54 2.86 3.135 2.75 1.1-.055 1.76-.33 2.31-.605l.33 1.1c-.55.275-1.43.605-2.805.715-2.64.165-4.29-1.43-4.455-4.015-.165-2.585 1.21-4.675 3.685-4.84 2.75-.165 3.685 2.2 3.795 3.795V22l-5.995.385Zm4.455-1.43c-.055-.99-.55-2.475-2.31-2.365-1.54.11-2.145 1.595-2.2 2.695l4.51-.33ZM121 25.41c-.55.275-1.705.55-3.135.55-3.355 0-5.83-2.145-5.83-6.05 0-3.74 2.53-6.215 6.215-6.215 1.485 0 2.42.33 2.805.55l-.385 1.265a5.803 5.803 0 0 0-2.365-.495c-2.805 0-4.62 1.76-4.675 4.895 0 2.915 1.65 4.785 4.51 4.785.935 0 1.87-.165 2.475-.495l.385 1.21ZM127.325 26.07l-.055-1.1h-.055c-.495.66-1.43 1.21-2.64 1.155-1.705-.055-2.53-1.32-2.475-2.585.11-2.035 1.98-3.08 5.28-2.915v-.165c.055-.715-.11-1.98-1.87-2.035-.77-.055-1.65.165-2.255.55l-.33-1.045c.715-.44 1.76-.66 2.805-.605 2.585.11 3.135 1.925 3.08 3.63l-.165 3.19c-.055.715-.055 1.485.055 2.035l-1.375-.11Zm0-4.345c-1.705-.11-3.63.11-3.685 1.76-.055.99.605 1.485 1.375 1.54 1.1.055 1.87-.605 2.145-1.32.055-.165.11-.33.11-.495l.055-1.485ZM131.56 20.02c.11-.88.165-1.595.165-2.31l1.375.165-.055 1.375h.055c.55-.77 1.43-1.43 2.805-1.265 1.155.11 1.98.935 2.2 1.98h.055c.33-.44.66-.77 1.045-.99a2.79 2.79 0 0 1 1.925-.385c1.1.11 2.695 1.045 2.365 3.96l-.55 5.005-1.485-.165.55-4.785c.165-1.65-.33-2.695-1.54-2.805-.88-.11-1.65.495-1.98 1.21-.11.22-.165.495-.22.77l-.55 5.225-1.485-.165.55-5.06c.165-1.32-.33-2.365-1.54-2.53-.99-.11-1.76.605-2.09 1.32-.11.22-.165.495-.22.715l-.55 5.115-1.485-.165.66-6.215ZM146.851 24.2c-.33 2.09.825 3.135 2.31 3.465 1.1.22 1.76.165 2.42 0l.055 1.155c-.605.165-1.54.22-2.86 0-2.585-.495-3.795-2.475-3.3-5.005.495-2.53 2.365-4.235 4.785-3.795 2.75.495 3.025 3.08 2.695 4.62-.055.33-.165.55-.165.715l-5.94-1.155Zm4.62-.275c.22-.99.055-2.53-1.65-2.86-1.54-.275-2.475.99-2.805 2.035l4.455.825ZM155.155 23.98c.275-.99.44-1.815.605-2.585l1.32.33-.385 1.65h.055c.66-.99 1.76-1.485 2.75-1.21.165.055.275.11.44.165l-.385 1.43c-.165-.055-.275-.11-.495-.165-1.045-.275-2.035.33-2.53 1.43-.11.22-.165.44-.22.66l-1.1 4.4-1.485-.385 1.43-5.72ZM163.406 32.56l.22-1.045h-.055c-.66.495-1.705.77-2.86.33-1.65-.55-2.09-1.98-1.65-3.135.66-1.925 2.75-2.42 5.885-1.32l.055-.165c.22-.66.44-1.925-1.21-2.475-.77-.275-1.595-.275-2.31-.11v-1.1c.825-.22 1.87-.165 2.915.22 2.475.825 2.475 2.75 1.925 4.345l-1.045 3.025c-.22.715-.44 1.375-.55 1.98l-1.32-.55Zm1.21-4.18c-1.595-.605-3.52-.935-4.015.66-.33.935.165 1.595.88 1.87 1.045.385 1.925-.055 2.42-.66.11-.11.165-.275.22-.44l.495-1.43ZM167.09 32.285c.275.495.825 1.155 1.54 1.485.99.495 1.705.275 2.035-.385.33-.66.11-1.21-.715-2.145-1.1-1.21-1.375-2.255-.88-3.19.605-1.21 2.145-1.705 3.74-.88.77.385 1.32.935 1.595 1.43l-.88.825c-.22-.33-.605-.88-1.32-1.21-.825-.44-1.485-.165-1.815.385-.33.605 0 1.155.77 2.035 1.045 1.155 1.375 2.2.825 3.3-.66 1.32-2.2 1.76-4.015.825-.825-.44-1.485-1.045-1.87-1.595l.99-.88Z"/></g></svg>
